X:140
T:Harvest Home                                                                                      
M:4/4                                                                                               
Z:Madison                                                                                           
Q:190                                                                                               
R:Hornpipe                                                                                          
L:1/8                                                                                               
K:D                                                                                                 
AF|DA FA DA FA|de fe dc BA|eA fA gA fA|(3efe (3dcB (3ABA (3GFE|                                     
DA FA DA FA|defe dcBA|eA fA ge cA|1 d2 f2 d2 AF:|2 d2 f2 d2 cd||                                    
eA A2 fA A2|gA fA eA A2|eA fA gA fA|(3efe (3dcB (3ABA (3GFE|                                        
DA FA DA FA|de fe dc BA|eA fA ge cA|1 d2 f2 d2 cd:|2 d2 f2 d2 AF||
